src/main/resources/pixelj/resources/svg/dark/pxf_clipboard_import.svg

<?xml version="1.0" encoding="UTF-8" standalone="no"?>
<!DOCTYPE svg PUBLIC "-//W3C//DTD SVG 1.1//EN" "http://www.w3.org/Graphics/SVG/1.1/DTD/svg11.dtd">
<svg width="100%" height="100%" viewBox="0 0 16 16" version="1.1" xmlns="http://www.w3.org/2000/svg" xmlns:xlink="http://www.w3.org/1999/xlink" xml:space="preserve" xmlns:serif="http://www.serif.com/" style="fill-rule:evenodd;clip-rule:evenodd;stroke-linejoin:round;stroke-miterlimit:2;">
    <g id="dark">
        <g id="green">
            <path d="M11,10l2.057,-0c1.371,-0 2.567,0.933 2.899,2.264l0.028,0.114c0.01,0.036 0.016,0.079 0.016,0.122c0,0.276 -0.224,0.5 -0.5,0.5c0,-0 -0.405,-0.058 -0.514,-0.494l0,0c-0.221,-0.885 -1.017,-1.506 -1.929,-1.506l-2.057,-0l0,2.5l-3,-3l3,-3l-0,2.5Z" style="fill:rgb(41,121,255);"/>
        </g>
        <g id="red">
        </g>
        <g id="gray">
        </g>
        <g id="yellow">
            <path d="M14,12.692c-0.129,-0.41 -0.509,-0.692 -0.943,-0.692l-1.057,-0l0,1.5c0,0.404 -0.244,0.769 -0.617,0.924c-0.374,0.155 -0.804,0.069 -1.09,-0.217l-3,-3c-0.391,-0.391 -0.391,-1.024 -0,-1.414l1.793,-1.793c-0,0 -3.707,0 -5.335,0c-0.415,-0 -0.751,-0.336 -0.751,-0.751c0,-0.944 0,-2.554 0,-3.498c0,-0.199 0.079,-0.39 0.22,-0.531c0.141,-0.141 0.332,-0.22 0.531,-0.22c0.568,0 1.249,-0 1.249,-0l0,-1l-2.249,-0c-0.199,-0 -0.39,0.079 -0.531,0.22c-0.141,0.141 -0.22,0.332 -0.22,0.531c0,2.295 0,9.203 0,11.498c-0,0.415 0.336,0.751 0.751,0.751c2.155,0 8.343,0 10.498,0c0.199,-0 0.39,-0.079 0.531,-0.22c0.141,-0.141 0.22,-0.332 0.22,-0.531c0,-0.674 0,-1.557 0,-1.557Zm0,-3.579l-0,-6.362c-0,-0.415 -0.336,-0.751 -0.751,-0.751c-0.888,0 -2.249,0 -2.249,0l0,1c0,0 0.681,0 1.249,0c0.199,-0 0.39,0.079 0.531,0.22c0.141,0.141 0.22,0.332 0.22,0.531c0,0.944 -0,2.554 -0,3.498c-0,0.199 -0.079,0.39 -0.22,0.531c-0.141,0.141 -0.332,0.22 -0.531,0.22c-0.143,0 -0.249,0 -0.249,0l-0,1l1.057,-0c0.323,-0 0.639,0.039 0.943,0.113Z" style="fill:rgb(229,115,26);"/>
        </g>
        <g id="icon">
            <path d="M6,1.987c0.007,-1.098 0.9,-1.987 2,-1.987c1.104,0 2,0.896 2,2l0,2l2,0l0,3l-8,0l0,-3l2,0l0,-2.013Zm2,-0.987c0.552,0 1,0.448 1,1c0,0.552 -0.448,1 -1,1c-0.552,0 -1,-0.448 -1,-1c0,-0.552 0.448,-1 1,-1Z" style="fill:rgb(151,159,173);"/>
        </g>
    </g>
    <g id="menu">
    </g>
</svg>

<?xml version="1.0" encoding="UTF-8" standalone="no"?>
<!DOCTYPE svg PUBLIC "-//W3C//DTD SVG 1.1//EN" "http://www.w3.org/Graphics/SVG/1.1/DTD/svg11.dtd">
<svg width="100%" height="100%" viewBox="0 0 16 16" version="1.1" xmlns="http://www.w3.org/2000/svg" xmlns:xlink="http://www.w3.org/1999/xlink" xml:space="preserve" xmlns:serif="http://www.serif.com/" style="fill-rule:evenodd;clip-rule:evenodd;stroke-linejoin:round;stroke-miterlimit:2;">
    <g id="green_dark">
        <path d="M11,10L13.057,10C14.428,10 15.624,10.933 15.956,12.264L15.984,12.378C15.994,12.414 16,12.457 16,12.5C16,12.776 15.776,13 15.5,13C15.5,13 15.095,12.942 14.986,12.506L14.986,12.506C14.765,11.621 13.969,11 13.057,11L11,11L11,13.5L8,10.5L11,7.5L11,10Z" style="fill:rgb(41,121,255);"/>
    </g>
    <g id="red_dark">
    </g>
    <g id="gray_dark">
    </g>
    <g id="yellow_dark">
        <path d="M14,12.692C13.871,12.282 13.491,12 13.057,12L12,12L12,13.5C12,13.904 11.756,14.269 11.383,14.424C11.009,14.579 10.579,14.493 10.293,14.207L7.293,11.207C6.902,10.816 6.902,10.183 7.293,9.793L9.086,8L3,8L3,3L5,3L5,2L2,2L2,15L14,15L14,12.692ZM14,9.113L14,2L11,2L11,3L13,3L13,8L12,8L12,9L13.057,9C13.38,9 13.696,9.039 14,9.113Z" style="fill:rgb(229,115,26);"/>
    </g>
    <g id="icon_dark">
        <path d="M6,1.987C6.007,0.889 6.9,-0 8,0C9.104,0 10,0.896 10,2L10,4L12,4L12,7L4,7L4,4L6,4L6,1.987ZM8,1C8.552,1 9,1.448 9,2C9,2.552 8.552,3 8,3C7.448,3 7,2.552 7,2C7,1.448 7.448,1 8,1Z" style="fill:rgb(151,159,173);"/>
    </g>
</svg>
